packages/dnb-eufemia/assets/icons/file_word.svg

<svg width="16" height="16" viewBox="0 0 16 16" fill="none" xmlns="http://www.w3.org/2000/svg">
<path d="M10.7181 4.98526C10.9861 5.30109 11.4594 5.33986 11.7753 5.07186C12.0911 4.80385 12.1299 4.33057 11.8619 4.01474L10.7181 4.98526ZM4 15.5927C4.41421 15.5927 4.75 15.2569 4.75 14.8427C4.75 14.4285 4.41421 14.0927 4 14.0927V15.5927ZM2 1.00001L2 1.75001L2 1.00001ZM7.85706 1L7.85706 1.75L7.85706 1ZM8.61953 1.35298L8.04768 1.83825L8.61953 1.35298ZM1.75 13.8427V2.00001H0.25V13.8427H1.75ZM2 1.75001L7.85706 1.75L7.85705 0.250001L2 0.250008L2 1.75001ZM8.04768 1.83825L10.7181 4.98526L11.8619 4.01474L9.19139 0.867723L8.04768 1.83825ZM2 15.5927H4V14.0927H2V15.5927ZM1.75 2.00001C1.75 1.86194 1.86193 1.75001 2 1.75001L2 0.250008C1.0335 0.250009 0.25 1.03351 0.25 2.00001H1.75ZM0.25 13.8427C0.25 14.8092 1.0335 15.5927 2 15.5927V14.0927C1.86193 14.0927 1.75 13.9807 1.75 13.8427H0.25ZM7.85706 1.75C7.93047 1.75 8.00017 1.78227 8.04768 1.83825L9.19139 0.867723C8.85889 0.475884 8.37096 0.25 7.85705 0.250001L7.85706 1.75Z" fill="black"/>
<path d="M5.37445 8.00026H4.14111V12.6669H5.37445C6.68778 12.6669 7.47445 11.8203 7.47445 10.3336C7.47445 8.84693 6.68778 8.00026 5.37445 8.00026ZM5.28111 11.8669H5.14111V8.80026H5.28111C6.04778 8.80026 6.45445 9.30026 6.45445 10.3336C6.45445 11.3669 6.04778 11.8669 5.28111 11.8669Z" fill="black"/>
<path d="M9.87184 7.93359C10.9918 7.93359 11.5918 8.77359 11.5918 10.3336C11.5918 11.8936 10.9918 12.7336 9.87184 12.7336C8.75184 12.7336 8.15184 11.8936 8.15184 10.3336C8.15184 8.77359 8.75184 7.93359 9.87184 7.93359ZM9.87184 11.8669C10.3185 11.8669 10.5718 11.3136 10.5718 10.3336C10.5718 9.35359 10.3185 8.80026 9.87184 8.80026C9.42518 8.80026 9.17184 9.35359 9.17184 10.3336C9.17184 11.3136 9.42518 11.8669 9.87184 11.8669Z" fill="black"/>
<path d="M13.3026 10.3336C13.3026 9.40693 13.6226 8.80026 14.1226 8.80026C14.5492 8.80026 14.7759 9.05359 14.8426 9.60693L15.7692 9.28026C15.6292 8.42693 15.0426 7.93359 14.1692 7.93359C12.9959 7.93359 12.2826 8.84026 12.2826 10.3336C12.2826 11.8536 12.9759 12.7336 14.1692 12.7336C14.9892 12.7336 15.5092 12.3603 15.7892 11.5669L14.9559 11.1069C14.7892 11.6869 14.5959 11.8669 14.1359 11.8669C13.6026 11.8669 13.3026 11.3136 13.3026 10.3336Z" fill="black"/>
</svg>

<svg width="16" height="16" viewBox="0 0 16 16" fill="none" xmlns="http://www.w3.org/2000/svg"><path d="M10.718 4.985a.75.75 0 0 0 1.144-.97l-1.144.97ZM4 15.593a.75.75 0 0 0 0-1.5v1.5ZM2 1v.75V1Zm5.857 0v.75V1Zm.763.353-.572.485.572-.485Zm-6.87 12.49V2H.25v11.843h1.5ZM2 1.75h5.857V.25H2v1.5Zm6.048.088 2.67 3.147 1.144-.97L9.192.868l-1.144.97ZM2 15.593h2v-1.5H2v1.5ZM1.75 2A.25.25 0 0 1 2 1.75V.25A1.75 1.75 0 0 0 .25 2h1.5ZM.25 13.843c0 .966.784 1.75 1.75 1.75v-1.5a.25.25 0 0 1-.25-.25H.25ZM7.857 1.75a.25.25 0 0 1 .19.088l1.144-.97A1.75 1.75 0 0 0 7.857.25v1.5ZM5.374 8H4.141v4.667h1.233c1.314 0 2.1-.847 2.1-2.333C7.474 8.847 6.688 8 5.374 8Zm-.093 3.867h-.14V8.8h.14c.767 0 1.173.5 1.173 1.534 0 1.033-.406 1.533-1.173 1.533Zm4.591-3.933c1.12 0 1.72.84 1.72 2.4s-.6 2.4-1.72 2.4-1.72-.84-1.72-2.4.6-2.4 1.72-2.4Zm0 3.933c.447 0 .7-.553.7-1.533 0-.98-.253-1.534-.7-1.534-.447 0-.7.554-.7 1.534s.253 1.533.7 1.533Zm3.431-1.533c0-.927.32-1.534.82-1.534.426 0 .653.254.72.807l.926-.327c-.14-.853-.726-1.346-1.6-1.346-1.173 0-1.886.906-1.886 2.4 0 1.52.693 2.4 1.886 2.4.82 0 1.34-.374 1.62-1.167l-.833-.46c-.167.58-.36.76-.82.76-.533 0-.833-.553-.833-1.533Z" fill="#000"/></svg>
